X: 848
T: The Tailor's Wedding
N:"Collected by F.O'Neill"
B:O'Neill's 848
Z:Transcribed by Dan G. Petersen, dangp@post6.tele.dk
M:6/8
L:1/8
K:G
D|{A}GFG BGB|def g2b|{A}GFG B2e|dBA A2D|
{A}GFG BGB|def (g2f/g/)|{b}agf gfe|dBA A2:|
(3(B/c/d/)|efe edB|ded dBd|efe edB|dBA ABd|
efe edB|def {a}gfg|{b}agf gfe|dBA A2:|


